X:1
T:The Kilfenora No. 2
R:jig
M:6/8
L:1/8
K:D
|:A2D FED|A2D FED|A2D FED|dce dcB|
|A2D FED|A2D FED|~E2E =cAF|1 G2G GFG:|2 G2G GAG|]
|:F2d dAF|ABA BAG|F2d dAF|ABA BAG|
|F2d dAF|ABA AFD|~E2E =cAF|1 G2G GAG:|2 G2G G2g|]
|:~f2d dcd|f2d dcd|~f2d dcd|~a2a bag|
|~f2d dcd|f2d def|ged cde|~g2g ~a2g:|
|:fed faf|gbg faf|fed faf|~a2a bag|
|fed faf|gbg faf|ged cde|~g2g ~a2g:|
|:fed edc|dcd AFA|DFA dAF|ABA AB=c|
|B2B =c2=c|B2B AFD|~E2E =cAF|1 G2G G2g:|2 G2G GFG|]